X:8
T:Slide From Grace
R:slip jig
M:9/8
L:1/8
K:Emin
|:G2E EDE GAB|G2E EDB AFD|G2E EDE GAB|1 d2B BAG A2B:|2 d2B BAG A(3Bcd||
e~e2 dBA GAB|~D3 DED GBd|e~e2 dBA GAB|B2A A2G A(3Bcd|
e~e2 dBA GAB|~D3 DED GAB|A2G B2D EGA|z(3Bcd edB A2B||
